src/assets/svg/icons/fa/nuevos/classic/duotone/sleigh classic duotone.svg

<svg xmlns="http://www.w3.org/2000/svg" viewBox="0 0 640 512"><defs><style>.fa-secondary{opacity:.4}</style></defs><path class="fa-primary" d="M0 64C0 46.33 14.33 32 32 32H64C66.31 32 68.56 32.24 70.74 32.71C124.1 37.61 174.2 67.59 203.4 114.3L207.7 121.1C247.7 185.1 317.8 224 393.3 224C423.5 224 448 199.5 448 169.3V128C448 110.3 462.3 96 480 96H544C561.7 96 576 110.3 576 128C576 145.7 561.7 160 544 160V256C544 309 501 352 448 352V416H384V352H192V416H128V352C74.98 352 32 309 32 256V96C14.33 96 .0003 81.67 .0003 64H0z"/><path class="fa-secondary" d="M608 352C625.7 352 640 366.3 640 384V392C640 440.6 600.6 480 552 480H64C46.33 480 32 465.7 32 448C32 430.3 46.33 416 64 416H552C565.3 416 576 405.3 576 392V384C576 366.3 590.3 352 608 352z"/></svg>

<svg xmlns="http://www.w3.org/2000/svg" viewBox="0 0 640 512"><!--! Font Awesome Pro 6.4.0 by @fontawesome - https://fontawesome.com License - https://fontawesome.com/license (Commercial License) Copyright 2023 Fonticons, Inc. --><defs><style>.fa-secondary{opacity:.4}</style></defs><path class="fa-primary" d="M0 64C0 46.3 14.3 32 32 32H55h9c2.3 0 4.6 .2 6.7 .7c54.2 4.9 103.5 34.9 132.7 81.6l4.3 6.9c40 64 110.1 102.9 185.6 102.9c30.2 0 54.7-24.5 54.7-54.7V128c0-17.7 14.3-32 32-32h32 32c17.7 0 32 14.3 32 32s-14.3 32-32 32v96c0 53-43 96-96 96v64H384V352H192v64H128V352c-53 0-96-43-96-96V96C14.3 96 0 81.7 0 64z"/><path class="fa-secondary" d="M608 352c17.7 0 32 14.3 32 32v8c0 48.6-39.4 88-88 88H64c-17.7 0-32-14.3-32-32s14.3-32 32-32H552c13.3 0 24-10.7 24-24v-8c0-17.7 14.3-32 32-32z"/></svg>
